packages/astro-components-stencil/src/icons/view-carousel.svg

<svg xmlns="http://www.w3.org/2000/svg" viewBox="0 0 24 24"><g xmlns="http://www.w3.org/2000/svg" id="view-carousel" fill-rule="nonzero">
            <path d="M8 19h8c.55 0 1-.45 1-1V5c0-.55-.45-1-1-1H8c-.55 0-1 .45-1 1v13c0 .55.45 1 1 1zm-5-2h2c.55 0 1-.45 1-1V7c0-.55-.45-1-1-1H3c-.55 0-1 .45-1 1v9c0 .55.45 1 1 1zM18 7v9c0 .55.45 1 1 1h2c.55 0 1-.45 1-1V7c0-.55-.45-1-1-1h-2c-.55 0-1 .45-1 1z"/>
        </g></svg>

<svg width="24" height="24" viewBox="0 0 24 24" fill="none" xmlns="http://www.w3.org/2000/svg">
<path fill-rule="evenodd" clip-rule="evenodd" d="M8 19H16C16.55 19 17 18.55 17 18V5C17 4.45 16.55 4 16 4H8C7.45 4 7 4.45 7 5V18C7 18.55 7.45 19 8 19ZM3 17H5C5.55 17 6 16.55 6 16V7C6 6.45 5.55 6 5 6H3C2.45 6 2 6.45 2 7V16C2 16.55 2.45 17 3 17ZM18 16V7C18 6.45 18.45 6 19 6H21C21.55 6 22 6.45 22 7V16C22 16.55 21.55 17 21 17H19C18.45 17 18 16.55 18 16Z" fill="black"/>
</svg>
